!!!!SEGMENT: pl-kk--kk-i-242--004_anonim--rorate-caeli.krn
!!!cenid: 16xx:1962
!!!COM: Anonim
!!!COM-rismID: pe30004985
!!!CDT:
!!!CNT:
!!!OTL: Rorate caeli
!!!PDT:
!!!AGN: Sacred
!!!YEC: Copyright 2022 Narodowy Instytut Fryderyka Chopina (https://polishscores.org)
!!!YEM: License CC-BY-4.0 (https://creativecommons.org/licenses/by/4.0)
!!!SMS-siglum: PL-Kk
!!!SMS-shelfmark: Kk.I.242
!!!SMS-variant:
!!!SMS-altvar:
!!!SMS-shelfwork: 004 W
!!!NIFC-rismSourceID: 1001150847
!!!NIFC-rismChildID: 1001150855
!!!NIFC-islandoraID: pl-kk:4478
!!!URL-pdf-islandora: https://repozytorium.nifc.pl/islandora/object/pl-kk:4478/datastream/PDF/view
!!!URL-scan: https://polish.musicsources.pl/pl/lokalizacje/galeria/rekopisy/5862/27 @EN{Scan on Polish Music Sources Website} @PL{Skany w portalu Dziedzictwo Muzyki Polskiej w otwartym dostępie}
!!!IIIF:
!!!ONB-nifc: UWAGA: Utwór zachowany tylko w partii B rip, skan 27.
!!!OMD:
!!!AIN: 1 bass
!!!key: G
**kern	**fba	**text
*I"Baſso Ripieno.	*	*
*I'B rip	*	*
*Ibass	*	*
*ICvox	*	*
*clefF4	*	*
*k[]	*	*
*G:	*	*
*M2/1	*	*
*met(C|)	*	*
=1-	=1-	=1-
0r	.	.
=2-	=2-	=2-
!LO:TX:t=P:problem:kreska pseudotaktowa	!	!
1r	.	.
1D	.	Ro-
=3-	=3-	=3-
*2\right	*	*
2G\	.	-ra-
!LO:TX:t=P:problem:kreska pseudotaktowa	!	!
2G\	.	-te
2A\	.	cae-
!LO:TX:t=P:problem:kreska pseudotaktowa	!	!
2F#X\	.	-li
=4-	=4-	=4-
2.G\	.	de-
!LO:TX:t=P:problem:kreska pseudotaktowa	!	!
4Fn\	.	-su-
2E,<\	.	-per
4E\	.	et
!LO:TX:t=P:problem:kreska pseudotaktowa	!	!
4D\	.	.
=5-	=5-	=5-
2C#X/	.	nu-
!LO:TX:t=P:problem:kreska pseudotaktowa	!	!
2D/	.	-bes
2BB/	.	plu-
!LO:TX:t=P:problem:kreska pseudotaktowa	!	!
2BB,</	.	-ant
=6-	=6-	=6-
1Cn	.	Jus-
!LO:TX:t=P:problem:kreska pseudotaktowa	!	!
1BB,<	.	-tum
=7-	=7-	=7-
2C/	.	plu-
!LO:TX:t=P:problem:kreska pseudotaktowa	!	!
2E\	.	-ant
!LO:TX:t=P:problem:kreska pseudotaktowa	!	!
1D	.	Ju-
=8-	=8-	=8-
2GG,</	.	-stum
1G	.	nu-
!LO:TX:t=P:problem:kreska pseudotaktowa	!	!
2F#X\	.	-bes
=9-	=9-	=9-
2E\	.	plu-
!LO:TX:t=P:problem:kreska pseudotaktowa	!	!
2E\	.	-ant
*custos:D	*	*
!LO:TX:t=P:problem:kreska pseudotaktowa	!	!
!LO:LB:g=original	!	!
1D	.	Ju-
=10-	=10-	=10-
!LO:TX:t=P:problem:kreska pseudotaktowa	!	!
[1GG	.	-stum
4GG/,<]	.	.
4G\	.	a-
4G\	.	-pe-
!LO:TX:t=P:problem:kreska pseudotaktowa	!	!
4Fn\	.	-ri-
=11-	=11-	=11-
2E\	.	-a-
!LO:TX:t=P:problem:kreska pseudotaktowa	!	!
2A\	.	-tur
2D\	.	ter-
4D,<\	.	-ra
!LO:TX:t=P:problem:kreska pseudotaktowa	!	!
4D\	.	et
=12-	=12-	=12-
4E\	.	ger-
4E\	.	-mi-
!LO:TX:t=P:problem:kreska pseudotaktowa	!	!
2E\	.	-net
2F#X\	.	Sal-
1G\	.	-va-
=13-	=13-	=13-
.	.	.
!LO:TX:t=P:problem:kreska pseudotaktowa	!	!
2F#X\	.	-to-
2G,<\	.	-rem
!LO:TX:t=P:problem:kreska pseudotaktowa	!	!
2E\	.	et
=14-	=14-	=14-
2A\	.	ger-
4.F#X\	.	.
!LO:TX:t=P:problem:kreska pseudotaktowa	!	!
8F#\	.	-mi-
4G\	.	-net
2G\	.	Sal-
!LO:TX:t=P:problem:kreska pseudotaktowa	!	!
4F#X\	.	-va-
=15-	=15-	=15-
2E\	.	-to-
!LO:TX:t=P:problem:kreska pseudotaktowa	!	!
2A\	.	.
!LO:TX:t=P:problem:kreska pseudotaktowa	!	!
1D	.	-rem
=16-	=16-	=16-
0r	.	.
=17-	=17-	=17-
!LO:TX:t=P:problem:kreska pseudotaktowa	!	!
1r	.	.
4r	.	.
4A\	.	a-
4A\	.	-pe-
!LO:TX:t=P:problem:kreska pseudotaktowa	!	!
4G\	.	-ri-
=18-	=18-	=18-
!LO:LB:g=original	!	!
2F#X\	.	-a-
!LO:TX:t=P:problem:kreska pseudotaktowa	!	!
2B\	.	-tur
2E\	.	ter-
4E\	.	-ra
!LO:TX:t=P:problem:kreska pseudotaktowa	!	!
4E\	.	et
=19-	=19-	=19-
4.F#X\	.	ger-
8F#\	.	-mi-
!LO:TX:t=P:problem:kreska pseudotaktowa	!	!
2F#\	.	-net
2G\	.	Sal-
!LO:TX:t=P:problem:kreska pseudotaktowa	!	!
2E\	.	-va-
=20-	=20-	=20-
2C/	.	-to-
!LO:TX:t=P:problem:kreska pseudotaktowa	!	!
2D\	.	.
0.GG	.	-rem.
=21-	=21-	=21-
.	.	.
=22||-	=22||-	=22||-
*M3/2	*	*
2D/	.	Be-
4D/	.	-ne-
4D/	.	-di-
4D/	.	-xiſ-
!LO:TX:t=P:problem:kreska pseudotaktowa	!	!
4D/	.	-ti
=23-	=23-	=23-
2.C#X/	.	Do-
4C#/	.	-mi-
!LO:TX:t=P:problem:kreska pseudotaktowa	!	!
2C#/	.	-ne
=24-	=24-	=24-
2BBn/	.	ter-
2BB/	.	-ram
!LO:TX:t=P:problem:kreska pseudotaktowa	!	!
2BB/	.	tu-
=25-	=25-	=25-
2AA,</	.	-am
2A\	.	a-
!LO:TX:t=P:problem:kreska pseudotaktowa	!	!
2F#X\	.	-ver-
=26-	=26-	=26-
2G\	.	-tiſ-
2G,<\	.	-ti
!LO:TX:t=P:problem:kreska pseudotaktowa	!	!
2G\	.	cap-
=27-	=27-	=27-
1F#X	.	-ti-
!LO:TX:t=P:problem:kreska pseudotaktowa	!	!
2F#\	.	-vi-
=28-	=28-	=28-
!LO:LB:g=original	!	!
!LO:TX:t=P:problem:kreska pseudotaktowa	!	!
1.E	.	-ta-
=29-	=29-	=29-
!LO:TX:t=P:problem:kreska pseudotaktowa	!	!
1.D	.	-tem
=30-	=30-	=30-
2BB/	.	cap-
2BB/	.	-ti-
!LO:TX:t=P:problem:kreska pseudotaktowa	!	!
2BB/	.	-vi-
=31-	=31-	=31-
1Cny	.	-ta-
!LO:TX:t=P:problem:kreska pseudotaktowa	!	!
2D\	.	-tem
=32-	=32-	=32-
2BB/	.	Ja-
!LO:TX:t=P:problem:kreska pseudotaktowa	!	!
1D	.	.
=33-	=33-	=33-
!LO:TX:t=P:problem:kreska pseudotaktowa	!	!
!LO:N:vis=0GG;	!	!
1.GG;	.	-cob.
=34||-	=34||-	=34||-
*M3/2	*	*
2.B\	.	Glo-
4B\	.	-ri-
!LO:TX:t=P:problem:kreska pseudotaktowa	!	!
2B\	.	-a
=35-	=35-	=35-
1F#X	.	Pa-
!LO:TX:t=P:problem:kreska pseudotaktowa	!	!
2F#\	.	-tri
=36-	=36-	=36-
2B\	.	et
2.G#X\	.	Fi-
!LO:TX:t=P:problem:kreska pseudotaktowa	!	!
4G#\	.	-li-
=37-	=37-	=37-
2A,<\	.	-o
2A\	.	et
!LO:TX:t=P:problem:kreska pseudotaktowa	!	!
2F#X\	.	Spi-
=38-	=38-	=38-
2.Gny\	.	-ri-
4G\	.	-tu-
!LO:TX:t=P:problem:kreska pseudotaktowa	!	!
[<2D\	.	-i
=39-	=39-	=39-
2D\]	.	.
2A\	.	San-
!LO:TX:t=P:problem:kreska pseudotaktowa	!	!
2AA/	.	.
=40-	=40-	=40-
2D,</	.	-cto
2D/	.	et
!LO:TX:t=P:problem:kreska pseudotaktowa	!	!
2BB/	.	Spi-
=41-	=41-	=41-
!LO:LB:g=original	!	!
2.C/	.	-ri-
4C/	.	-tu-
!LO:TX:t=P:problem:kreska pseudotaktowa	!	!
[<2GG/	.	-i
=42-	=42-	=42-
2GG/]	.	.
!LO:TX:t=P:problem:kreska pseudotaktowa	!	!
1D	.	San-
=43-	=43-	=43-
!LO:TX:t=P:problem:kreska pseudotaktowa	!	!
1.GG;	.	-cto.
=44||-	=44||-	=44||-
*M2/1	*	*
*met(C|)	*	*
00r	.	.
=45-	=45-	=45-
.	.	.
=46-	=46-	=46-
0r	.	.
=47-	=47-	=47-
!LO:TX:t=P:problem:kreska pseudotaktowa	!	!
1r	.	.
2r	.	.
!LO:TX:t=P:problem:kreska pseudotaktowa	!	!
[<2G\	.	Si-
=48-	=48-	=48-
4G\]	.	.
4G\	.	-cut
4G\	.	e-
!LO:TX:t=P:problem:kreska pseudotaktowa	!	!
4G\	.	-rat
4F#X\	.	in
4F#\	.	prin-
4.F#\	.	-ci-
!LO:TX:t=P:problem:kreska pseudotaktowa	!	!
8G\	.	-pi-
=49-	=49-	=49-
2A,<\	.	-o
!LO:TX:t=P:problem:kreska pseudotaktowa	!	!
2A\	.	et
(4G\	.	nunc
4F#X\)	.	.
(4G\	.	et
!LO:TX:t=P:problem:kreska pseudotaktowa	!	!
4A\)	.	.
=50-	=50-	=50-
2B\	.	sem-
4c\	.	.
!LO:TX:t=P:problem:kreska pseudotaktowa	!	!
4B\	.	.
2A\	.	.
1G\	.	.
=51-	=51-	=51-
.	.	.
!LO:TX:t=P:problem:kreska pseudotaktowa	!	!
2F#X\	.	.
2G,<\	.	-per
4D/	.	et
!LO:TX:t=P:problem:kreska pseudotaktowa	!	!
4D/	.	in
*custos:E	*	*
=52-	=52-	=52-
!LO:LB:g=original	!	!
2.E\	.	sae-
!LO:TX:t=P:problem:kreska pseudotaktowa	!	!
4E\	.	-cu-
!LO:TX:t=P:problem:kreska pseudotaktowa	!	!
1D	.	-la
=53-	=53-	=53-
!LO:TX:t=P:problem:kreska pseudotaktowa	!	!
1r	.	.
2.D\	.	et
!LO:TX:t=P:problem:kreska pseudotaktowa	!	!
4D\	.	in
=54-	=54-	=54-
2.E\	7	sae-
!LO:TX:t=P:problem:kreska pseudotaktowa	!	!
4E\	6\	-cu-
2D\	.	-la
1G\	32	sae-
=55-	=55-	=55-
.	.	.
(4A\	.	-cu-
!LO:TX:t=P:problem:kreska pseudotaktowa	!	!
4G\)	.	.
2.F#X\	6	-lo-
8E\L	.	-rum
!LO:TX:t=P:problem:kreska pseudotaktowa	!	!
8D\J	.	.
=56-	=56-	=56-
1E	76	a-
!LO:TX:t=P:problem:kreska pseudotaktowa	!	!
1D	43	-men
=57-	=57-	=57-
2r	.	.
1G	.	et
!LO:TX:t=P:problem:kreska pseudotaktowa	!	!
2E\	5	in
=58-	=58-	=58-
4.C/	.	sae-
8C/	.	-cu-
!LO:TX:t=P:problem:kreska pseudotaktowa	!	!
2D\	.	-la
(4E\	.	sae-
4D\)	.	.
(4C/	.	-cu-
!LO:TX:t=P:problem:kreska pseudotaktowa	!	!
4BB/)	.	.
=59-	=59-	=59-
2AA/	6\	-lo-
!LO:TX:t=P:problem:kreska pseudotaktowa	!	!
2D\	.	.
2G\	.	.
!LO:TX:t=P:problem:kreska pseudotaktowa	!	!
2E\	5	-rum
=60-	=60-	=60-
2C/	6 5	a-
!LO:TX:t=P:problem:kreska pseudotaktowa	!	!
2D\	.	.
1E	56nr	.
=61-	=61-	=61-
!LO:TX:t=P:problem:kreska pseudotaktowa	!	!
1D	76	.
1C	36	.
=62-	=62-	=62-
1BB	76	.
!LO:TX:t=P:problem:nieczytelne cyfrowanie bc	!	!
1C	.	.
=63-	=63-	=63-
0D	34	.
=64-	=64-	=64-
0GG;	.	-men
=-	=-	=-
*-	*-	*-
!!!RDF**kern: < = below
!!!ENC: Filip Voros
!!!END: 2024-04-18
!!!EED: Marta Chmielewska
!!!EEV: 2024-06-02
